X:0658
T:The Bedding of the Bride.
M:C|
L:1/8
Q:1/2=104
I: :: :: :: ::
Z:Jack Campin * www.campin.me.uk * 2009
K:A Mixolydian
a|A/A/A (ec) Bcdf|A/A/A (ec) AAec|A/A/A (ec) B>cdf|ed`c>B A>cd:|
f|A/A/A  ac  Bcdf|A/A/A  a>c AAac|A/A/A  ac  B>cdf|ed`cB  A>cd:|
f|Aece       Bcdf|Aece       Aece|dfce       B`cdf|edTc>B A>cd:|
f|A/A/A  ac  Bcdf|A/A/A  a>c AAac|A/A/A  a>c B`cdf|edTc>B A>cd:|
<end>
<start>
